assets/logos/rd.svg

<svg width="80" height="80" viewBox="0 0 80 80" fill="none" xmlns="http://www.w3.org/2000/svg">
<path d="M40.0005 52.9475H39.8909L11.1699 63.5886V54.3736L40.0005 43.7326L68.8312 54.3736V63.5886L40.0005 52.9475Z" fill="black" stroke="black" stroke-width="0.3464"/>
<path d="M39.9998 53.1738L10.95 63.9246L21.6929 69.0805L39.9998 62.279L58.3067 69.0805L69.0497 63.9246L39.9998 53.1738Z" fill="#19C1CE"/>
<path d="M39.8909 27.0663H40.0005L68.8312 16.4253V25.6402L40.0005 36.2813L11.1699 25.6402V16.4253L39.8909 27.0663Z" fill="black" stroke="black" stroke-width="0.3464"/>
<path d="M39.9999 26.8419L69.0498 16.0911L58.3068 10.9352L39.9999 17.7367L21.693 10.9352L10.9501 16.0911L39.9999 26.8419Z" fill="#19C1CE"/>
</svg>

<svg xmlns="http://www.w3.org/2000/svg" width="80" height="80" fill="none" viewBox="0 0 80 80"><path fill="#000" stroke="#000" stroke-width=".346" d="M40 52.948h-.11l-28.72 10.64v-9.214L40 43.733l28.831 10.64v9.216z"/><path fill="#19c1ce" d="m40 53.174-29.05 10.75 10.743 5.157L40 62.279l18.307 6.801 10.743-5.155z"/><path fill="#000" stroke="#000" stroke-width=".346" d="M39.89 27.066H40l28.831-10.64v9.214l-28.83 10.641-28.831-10.64v-9.216z"/><path fill="#19c1ce" d="m40 26.842 29.05-10.75-10.743-5.157L40 17.737l-18.307-6.802-10.743 5.156z"/></svg>
